src/assets/imgs/ico_jianzhu_mianji.svg

<?xml version="1.0" encoding="UTF-8"?>
<svg width="14px" height="14px" viewBox="0 0 14 14" version="1.1" xmlns="http://www.w3.org/2000/svg" xmlns:xlink="http://www.w3.org/1999/xlink">
    <title>ico_jianzhu_mianji</title>
    <g id="页面-1" stroke="none" stroke-width="1" fill="none" fill-rule="evenodd">
        <g id="1-分享主页" transform="translate(-232.000000, -1808.000000)">
            <g id="编组-6备份-3" transform="translate(10.000000, 1599.000000)">
                <g id="编组-11" transform="translate(182.000000, 158.000000)">
                    <g id="编组" transform="translate(40.000000, 51.000000)">
                        <path d="M13.9859375,11.1734375 L12.7140625,11.1734375 L12.7140625,5.45 C12.7140625,5.0984375 12.4296875,4.8140625 12.078125,4.8140625 L10.171875,4.8140625 L10.171875,11.171875 L8.9,11.171875 L8.9,1.6359375 C8.9,1.284375 8.615625,1 8.2640625,1 L1.90625,1 C1.5546875,1 1.2703125,1.284375 1.2703125,1.6359375 L1.2703125,11.1734375 L0,11.1734375 L0,12.4453125 L13.9859375,12.4453125 L13.9859375,11.1734375 Z M6.35625,7.3578125 L3.8125,7.3578125 L3.8125,6.0859375 L6.35625,6.0859375 L6.35625,7.3578125 Z M6.35625,4.8140625 L3.8125,4.8140625 L3.8125,3.5421875 L6.35625,3.5421875 L6.35625,4.8140625 L6.35625,4.8140625 Z" id="形状" fill="#0072FF" fill-rule="nonzero"></path>
                        <rect id="矩形" x="0" y="0" width="14" height="14"></rect>
                    </g>
                </g>
            </g>
        </g>
    </g>
</svg>

<svg width="14" height="14" xmlns="http://www.w3.org/2000/svg"><g fill="none" fill-rule="evenodd"><path d="M13.986 11.173h-1.272V5.45a.635.635 0 00-.636-.636h-1.906v6.358H8.9V1.636A.635.635 0 008.264 1H1.906a.635.635 0 00-.636.636v9.537H0v1.272h13.986v-1.272zm-7.63-3.815H3.813V6.086h2.543v1.272zm0-2.544H3.813V3.542h2.543v1.272z" fill="#0072FF" fill-rule="nonzero"/><path d="M0 0h14v14H0z"/></g></svg>
